X:5559
T:Ril Liadroma
O:england
R:Reel
M:C|
K:Emin
gf|eB ~B2 eBdB|AF ~F2 defd|eB ~B2 eBdB|AFDE FE ~E2|\
eB B2 eBdB|AF ~F2 defd|eB ~B2 eBdB|AFDE FE E2||\
(3B^cd ef g2 fe|defg a3f|Bdef g2fe|fbba fee2|\
Bdef g2 fe|defg a2 ga|bgaf gfed|edBd e2||


